X:101
T:Horse and away at Newmarket. MBe.101
S:Matthew Betham MS, Towcett Cumbria, 1815
O:England;Cumbria;Towcett
Z:VMP – Hugh Taylor, 2012
T:Horse and Away to Newmarket, aka. MBe.101
M:6/8
L:1/8
Q:3/8=100
R:.Jig
N:The page is torn and the music is incomplete.
K:Ador
g|edc BAB|GBG B2g|edc BAG|cAB c2g|edc BAG|GBG B2G|cde gdB|ABA c2:|\
|:g”>page torn”:
AAa f2g|GGc BBg|Ggd B2G|cde gdB|ABA c2:|\
|:e|ggd eec|ddG B2G|ffd eec”>page torn”:
cde gdB|ABA c2::e|dB/c/d dB/c/d|dB/c/d c2d|dB/c/d dcB|ABA c2e|dB/c/d dB/c/d|Gfe d”>page torn”:

